src/assets/svg/html-icon.svg

<svg width="48" height="48" viewBox="0 0 48 48" fill="none" xmlns="http://www.w3.org/2000/svg">
<path d="M9 42L6 4.5L42 4.5L39 42L24 46.5L9 42Z" fill="#E44D26"/>
<path d="M39.0005 7.5L24.0005 7.5L24.0005 44.25L36.0005 40.5L39.0005 7.5Z" fill="#F16529"/>
<path d="M14.2495 26.25L12.7495 12L35.9995 12L35.2495 16.5H17.2495L17.9995 21.75H34.4995L32.9995 36L23.9995 39L14.9995 36L14.2495 28.5H18.7495L19.4995 32.25L23.9995 33.75L28.4995 32.25L29.2495 26.25H14.2495Z" fill="white"/>
</svg>

<svg width="48" height="48" fill="none" xmlns="http://www.w3.org/2000/svg"><path d="M9 42 6 4.5h36L39 42l-15 4.5L9 42z" fill="#E44D26"/><path d="M39 7.5H24v36.75l12-3.75 3-33z" fill="#F16529"/><path d="M14.25 26.25 12.75 12H36l-.75 4.5h-18l.75 5.25h16.5L33 36l-9 3-9-3-.75-7.5h4.5l.75 3.75 4.5 1.5 4.5-1.5.75-6h-15z" fill="#fff"/></svg>
